X:1
T:si seulement
T:If Only
T:Nathan Delameillieure
T:Johannick RENAUD
C:Nathan Delameillieure
%%score 1 { 2 | 3 }
L:1/8
M:4/4
K:G
V:1 treble nm="Voix" snm="Vx."
V:2 treble nm="Piano" snm="Pno."
V:3 bass 
V:1
 BAGB- B4- | B3 B d2 eB- | B A7- | A2 z2 BAGB- | B8- | B2 B2 B2 BA- | A8- | A7 z |: %8
w: I want to be- *|, With all my fri-|* ends|* I wan- na see-||, Their hap- py ends.-||.|
w: ||||||||
 E3/2E3/2E3/2E3/2 B2 | E3/2E3/2E3/2E3/2 B2 | G3/2G3/2G3/2GG/ d2 | G3/2G3/2G3/2G3/2 d2 | %12
w: But i see them down,|bur- ning all a- round.|I don't care if the ground,|burn me from in- side|
w: ||||
 B3/2B3/2B3/2B3/2BB | B3/2B3/2B3/2B3/2BB | A3/2A3/2A3/2A3/2AA | A8 | BAGB- B4- | B3 B d2 eB- | %18
w: I'll take all peo- ple down|if they're from the dark- side|You are spe- cial if on|ly...|I want to be- *|, With all my fri-|
w: ||||||
 B A7- | A2 z2 BAGB- | B8- | B2 BB B2 BA- | A8- | A7 z | BAGB- B4- | B3 B d2 eB- | B A7- | %27
w: * ends|* E- ven if they'-|re|* far to be an- gels|||I want to be- *|, With all my fri-|* ends|
w: |* You're not born to|be|* bur- ning in the Hell||||||
 A2 z2 BAGB- | B8- | B2 BB B2 BA- | A8- | A7 z :| GFE B,4- B, | GG/FF/A A/ G3- G/ | GFD B,4- B, | %35
w: * God please give me||, some- one who un- der-|stand|||||
w: ||* some of your po- wers||||||
 GG/FF/A A/ G3- G/ | GFD B,4- B, | GG/FF/A A/ G3- G/ | GFE D4 E | ^C6 z2 |] %40
w: |||||
w: |||||
V:2
 GFE B,4- B, | GG/FF/A A/ G3- !fermata!G/ | GFD B,4- B, | GG/FF/A A/ G3- !fermata!G/ | %4
w: ||||
w: ||||
 GFD B,4- B, | GG/FF/A A/ G3- !fermata!G/ | GFE D4 E | !fermata!^C8 |: GFE B,4- B, | %9
w: |||||
w: |||||
 GG/FF/A A/ G3- G/ | GFD B,4- B, | GG/FF/A A/ G3- G/ | GFD B,4- B, | GG/FF/A A/ G3- G/ | GFE D4 E | %15
w: ||||||
w: ||||||
 ^C6 G/F/E | GG/FF/ E2 B, E/F/G | GG/FF/ E2 B, E/F/G | AA/GG/ D2 B, E/F/G | AA/GG/ D2 B, E/F/A | %20
w: |||||
w: |||||
 GG/FF/ D2 B, D/F/G | GG/FF/ D2 B, D/F/G | GG/FF/ E2 E E/F/E | ^CD/CD/ E4 G | GFE B,4- B, | %25
w: |||||
w: |||||
 GG/FF/A A/ G3- !fermata!G/ | GFD B,4- B, | GG/FF/A A/ G3- !fermata!G/ | GFD B,4- B, | %29
w: ||||
w: ||||
 GG/FF/A A/ G3- !fermata!G/ | GFE D4 E | !fermata!^C8 :| E3/2E3/2E3/2E3/2 B2 | E3/2E3/2E3/2E3/2BB | %34
w: |||I know i could fly,|I'd jump out of Hea- ven,|
w: |||||
 G3/2G3/2G3/2GG/ d2 | G3/2G3/2G3/2G3/2dd | B3/2B3/2B3/2B3/2BB | B3/2B3/2B3/2B3/2BB | %38
w: ~ know i have to try,|Won a tri- ple se- ven|I know I have to try|At least show you hea- ven|
w: I * * * * *||||
 A3/2A3/2A3/2A3/2AA | A8 |] %40
w: You are u- nique if on|ly...|
w: ||
V:3
 E,8 | E,8 | G,8 | G,8 | B,8 | B,8 | A,8 | A,8 |: E,3/2E,3/2E,3/2E,3/2E,E, | %9
 E,3/2E,3/2E,3/2E,3/2E,F, | G,3/2G,3/2G,3/2G,3/2G,G, | G,3/2G,3/2G,3/2G,3/2G,A, | %12
 B,3/2B,3/2B,3/2B,3/2B,B, | B,3/2B,3/2B,3/2B,3/2B,B, | A,3/2A,3/2A,3/2A,3/2A,A, | A,8 | %16
 [E,,E,]3/2[E,,E,]3/2[E,,E,]3/2[E,,E,]3/2[E,,E,][E,,E,] | %17
 [E,,E,]3/2[E,,E,]3/2[E,,E,]3/2[E,,E,]3/2[E,,E,][F,,F,] | %18
 [G,,G,]3/2[G,,G,]3/2[G,,G,]3/2[G,,G,]3/2[G,,G,][G,,G,] | %19
 [G,,G,]3/2[G,,G,]3/2[G,,G,]3/2[G,,G,]3/2[G,,G,][A,,A,] | %20
 [B,,B,]3/2[B,,B,]3/2[B,,B,]3/2[B,,B,]3/2[B,,B,][B,,B,] | %21
 [B,,B,]3/2[B,,B,]3/2[B,,B,]3/2[B,,B,]3/2[B,,B,][B,,B,] | %22
 [A,,A,]3/2[A,,A,]3/2[A,,A,]3/2[A,,A,]3/2[A,,A,][A,,A,] | %23
 [A,,A,]3/2[A,,A,]3/2[A,,A,]3/2[A,,A,]3/2[A,,A,][A,,A,] | E,3/2E,3/2E,3/2E,3/2E,E, | %25
 E,3/2E,3/2E,3/2E,3/2E,F, | G,3/2G,3/2G,3/2G,3/2G,G, | G,3/2G,3/2G,3/2G,3/2G,A, | %28
 B,3/2B,3/2B,3/2B,3/2B,B, | B,3/2B,3/2B,3/2B,3/2B,B, | A,3/2A,3/2A,3/2A,3/2A,A, | A,8 :| %32
 E,3/2E,3/2E,3/2E,3/2E,E, | E,3/2E,3/2E,3/2E,3/2E,F, | G,3/2G,3/2G,3/2G,3/2G,G, | %35
 G,3/2G,3/2G,3/2G,3/2G,A, | B,3/2B,3/2B,3/2B,3/2B,B, | B,3/2B,3/2B,3/2B,3/2B,B, | %38
 A,3/2A,3/2A,3/2A,3/2A,A, | A,8 |] %40

